Obsidian-SemiLight/actions/22s/kdenlive-show-markers.svg

<svg viewBox="0 0 22 22" xmlns="http://www.w3.org/2000/svg"><path d="m3 3v16h1v-7l5-1 1-.199219v2l9-1.800781-2-1 2-1-9-2.4003906v-2l-1-.265625-5-1.3339844z" fill="#4d4d4d"/></svg>

<svg xmlns="http://www.w3.org/2000/svg" viewBox="0 0 22 22">
  <defs id="defs3051">
    <style type="text/css" id="current-color-scheme">
      .ColorScheme-Text {
        color:#4d4d4d;
      }
      </style>
  </defs>
 <path 
     style="fill:currentColor;fill-opacity:1;stroke:none" 
     d="M 3 3 L 3 19 L 4 19 L 4 12 L 9 11 L 10 10.800781 L 10 12.800781 L 19 11 L 17 10 L 19 9 L 10 6.5996094 L 10 4.5996094 L 9 4.3339844 L 4 3 L 3 3 z "
     class="ColorScheme-Text"
     />
</svg>
